intellij-plugin/educational-core/resources/icons/com/jetbrains/edu/expui/learning/applyCode_dark.svg

<svg width="16" height="16" viewBox="0 0 16 16" xmlns="http://www.w3.org/2000/svg">
  <path fill="none" stroke="#CED0D6" stroke-linecap="round" stroke-miterlimit="10" d="M2.5 3.5h10m-10 3h5m-5 3h3m-3 3h5"/>
  <path fill="none" stroke="#3574F0" stroke-linecap="round" stroke-linejoin="round" d="M8.5 9.5h6m-4-2-2 2 2 2"/>
</svg>

<svg width="16" height="16" viewBox="0 0 16 16" fill="none" xmlns="http://www.w3.org/2000/svg">
<path d="M2.5 3.5H12.5M2.5 6.5H7.5M2.5 9.5H5.5M2.5 12.5H7.5" stroke="#CED0D6" stroke-miterlimit="10" stroke-linecap="round"/>
<path d="M8.5 9.5H14.5M8.5 9.5L10.5 7.5M8.5 9.5L10.5 11.5" stroke="#548AF7" stroke-linecap="round" stroke-linejoin="round"/>
</svg>
